X:31
T:Sound a Charge
T:24 Country Dances for the Year 1708
N:Same as later Put in All (24PtPi) except for
N:the vast stay in bars 7 and 8
Z:Bruce Olson
F:http://users.erols.com/olsonw/BM4.ABC# B438
Q:1/4=120
L:1/4
M:C|
K:Gm
D|DGGA|B2AB|c2BA|B3D|DGGA|
B2AG|(D4|D3)A|Bcde|f2d2|cBAG|^F3D|
DGGA|B2d^F|G2G^F|G3|]
